X:1
T:Portsmouth
%%score { 1 | 2 }
L:1/8
M:4/4
K:Bb
V:1 treble 
V:2 bass 
V:1
 z4 z2 F2 | D2 F2 B2 F2 | (B>cB>c d2) B2 | e2 d2 c2 B2 | c6 (f>e) | d2 c2 B2 F2 | B>cB>c d3 f | %7
 d3 f B2 F2 | (c>dc>d e2) d2 | g2 f2 e2 d2 | c6 f2 | (dB)(Af) A2 G2 | F6 F2 | B2 B2 B3 c | %14
 d2 d2 d3 c | d3 c (df)(dB) | c2 c2 c3 f | d3 f B2 F2 | (c>d)(c>d) e3 c | (d>e)(d>e) (fB) (3(gfe) | %20
 d2 c2 B4 |] %21
V:2
 z4 z2 B,,2 | B,2 A,2 G,2 D,2 | (G,2 F,>E, D,2) D,2 | C,2 B,,2 A,,2 B,,2 | F,6 F,2 | %5
 B,2 A,2 B,2 D,2 | (G,2 F,>E, D,3) B,, | B,,3 B,, B,2 B,2 | F,6 B,,2 | E,2 D,2 C,2 B,,2 | F,6 F,2 | %11
 B,2 (A,B,) C2 C,2 | F,6 F,2 | D,2 B,,2 B,3 F, | B,2 B,2 B,3 F, | B,,3 F, B,2 B,2 | %16
 F,2 F,2 F,3 F, | B,3 A, G,2 D,2 | C,2 B,,2 A,,3 A,, | B,,2 B,,2 D,2 E,2 | F,2 F,2 B,,4 |] %21

